packages/crayons-core/src/components/icon/icon-assets/icons/nav-dashboard.svg

<?xml version="1.0" encoding="UTF-8"?>
<svg width="20px" height="20px" viewBox="0 0 20 20" version="1.1" xmlns="http://www.w3.org/2000/svg" xmlns:xlink="http://www.w3.org/1999/xlink">
    <!-- Generator: Sketch 52.6 (67491) - http://www.bohemiancoding.com/sketch -->
    <title>icon/nav-dashboard</title>
    <desc>Created with Sketch.</desc>
    <g id="Icons-✅" stroke="none" stroke-width="1" fill="none" fill-rule="evenodd">
        <g id="Icons" transform="translate(-160.000000, -1594.000000)" fill="currentColor">
            <g id="icon/nav-dashboard" transform="translate(160.000000, 1594.000000)">
                <g id="nav-dashboard">
                    <path d="M10,0 C12.6521649,1.62398263e-16 15.195704,1.0535684 17.0710678,2.92893219 C18.9464316,4.80429597 20,7.3478351 20,10 C20,15.5228475 15.5228475,20 10,20 C4.4771525,20 -6.76353751e-16,15.5228475 0,10 C6.76353751e-16,4.4771525 4.4771525,-3.38176876e-16 10,0 Z M10,18.6 C14.7473644,18.5944894 18.5944894,14.7473644 18.6,10 C18.6,5.25035115 14.7496488,1.4 10,1.4 C5.25035115,1.4 1.4,5.25035115 1.4,10 C1.4,14.7496488 5.25035115,18.6 10,18.6 Z M13.43,5.57 L13.41,5.53 C11.957958,4.4092457 10.049725,4.0691303 8.29988343,4.61919439 C6.55004185,5.16925849 5.17962443,6.54002027 4.63,8.29 C4.53886164,8.58442143 4.26818397,8.78641969 3.96,8.79 C3.89417735,8.80500237 3.82582265,8.80500237 3.76,8.79 C3.39026524,8.67917927 3.18000957,8.28998261 3.29,7.92 C3.96913217,5.71993177 5.68676074,3.99453473 7.88374194,3.30548154 C10.0807231,2.61642834 12.4760627,3.05184901 14.29,4.47 C14.5078459,4.6160645 14.6257605,4.87165418 14.5954941,5.13218369 C14.5652276,5.39271319 14.3918591,5.61446368 14.1463295,5.70669655 C13.9007999,5.79892942 13.624311,5.74616728 13.43,5.57 Z M16.28,6.88 C16.5480079,7.15558469 16.5480079,7.59441531 16.28,7.87 L11.89,12.26 C11.9620597,12.4553353 11.9992907,12.6617983 12,12.87 C12,13.9745695 11.1045695,14.87 10,14.87 C8.8954305,14.87 8,13.9745695 8,12.87 C8,11.7654305 8.8954305,10.87 10,10.87 C10.3536816,10.8727141 10.6997406,10.9730712 11,11.16 L15.28,6.88 C15.5567978,6.60544444 16.0032022,6.60544444 16.28,6.88 Z M10,13.47 C10.3313708,13.47 10.6,13.2013708 10.6,12.87 C10.6,12.5386292 10.3313708,12.27 10,12.27 C9.66862915,12.27 9.4,12.5386292 9.4,12.87 C9.4,13.2013708 9.66862915,13.47 10,13.47 Z" id="Combined-Shape"></path>
                </g>
            </g>
        </g>
    </g>
</svg>

<svg viewBox="0 0 20 20"><path d="M10 0a10 10 0 0 1 10 10c0 5.523-4.477 10-10 10S0 15.523 0 10 4.477 0 10 0zm0 18.6a8.61 8.61 0 0 0 8.6-8.6 8.6 8.6 0 1 0-8.6 8.6zm3.43-13.03l-.02-.04a5.61 5.61 0 0 0-8.78 2.76.71.71 0 0 1-.67.5.45.45 0 0 1-.2 0 .7.7 0 0 1-.47-.87 7 7 0 0 1 11-3.45.7.7 0 1 1-.86 1.1zm2.85 1.31a.71.71 0 0 1 0 .99l-4.39 4.39c.072.195.11.402.11.61a2 2 0 1 1-2-2c.354.003.7.103 1 .29l4.28-4.28a.71.71 0 0 1 1 0zM10 13.47a.6.6 0 1 0 0-1.2.6.6 0 0 0 0 1.2z" fill="currentColor" fill-rule="evenodd"/></svg>
